X: 18345
T: Humours Of Whiskey, The
R: slip jig
M: 9/8
K: Dmajor
|:gfe fBB fBB|gfe fBB fga|gfe fBB fga|agf efd cde:|
|:d2e faf ecA|d2e faf gec|d2e faf efg|1 agf efd cde:|2 agf efd cBA||

